public/images/services/dark/2.svg

<svg width="79" height="79" viewBox="0 0 79 79" fill="none" xmlns="http://www.w3.org/2000/svg">
<g id="Frame" clip-path="url(#clip0_3255_8087)">
<path id="Vector" d="M47.5092 70.1308C64.5801 65.5567 74.7108 48.0099 70.1366 30.939C65.5625 13.868 48.0157 3.7374 30.9448 8.31154C13.8739 12.8857 3.74323 30.4325 8.31737 47.5034C12.8915 64.5743 30.4383 74.7049 47.5092 70.1308Z" fill="white"/>
<g id="Group">
<path id="Vector_2" d="M48.0001 37.7041L48.6666 36.5498C48.6668 36.5494 48.667 36.549 48.6672 36.5487C48.6674 36.5483 48.6676 36.5479 48.6679 36.5476L51.0189 32.4754C51.019 32.4751 51.0192 32.4749 51.0194 32.4747C51.0195 32.4745 51.0196 32.4743 51.0197 32.474L53.3712 28.4011C53.3712 28.401 53.3713 28.401 53.3714 28.4009C53.3714 28.4008 53.3715 28.4007 53.3715 28.4006L54.6631 26.1634C55.0778 25.4453 55.188 24.6086 54.9733 23.8076C54.7587 23.0065 54.2449 22.337 53.5268 21.9225L47.0568 18.187C46.3387 17.7723 45.5019 17.6621 44.7009 17.8768C43.8998 18.0914 43.2303 18.6051 42.8157 19.3233L36.1526 30.864L28.3192 26.3413C27.0079 25.5842 25.5145 25.1953 24.0003 25.2168L17.0729 25.3152C16.6768 25.3207 16.3126 25.5344 16.1146 25.8776C15.9164 26.2207 15.9134 26.6428 16.1067 26.9887L19.4853 33.0372C20.2237 34.3592 21.3072 35.4582 22.6185 36.2153L30.452 40.7378L23.7889 52.2785C23.3743 52.9967 23.2641 53.8334 23.4787 54.6344C23.6934 55.4355 24.2071 56.1049 24.9253 56.5195L31.3954 60.255C32.1136 60.6697 32.9502 60.7799 33.7513 60.5652C34.5524 60.3506 35.2218 59.8369 35.6364 59.1187L39.2786 52.8103C39.2792 52.8094 39.2797 52.8084 39.2803 52.8075C39.2809 52.8065 39.2814 52.8055 39.2819 52.8046L42.2995 47.5781L52.9088 53.7034C54.27 54.4893 55.8238 54.6483 57.234 54.2704C58.6441 53.8926 59.9103 52.978 60.6962 51.6168C62.2679 48.8946 61.3319 45.4011 58.6096 43.8295L48.0001 37.7041ZM21.4495 31.94L18.9908 27.5382L24.0322 27.4667C25.1408 27.4509 26.2341 27.7356 27.1942 28.2899L28.2805 28.9171L24.8297 34.894L23.7434 34.2668C22.7834 33.7124 21.9902 32.9079 21.4495 31.94ZM26.7783 36.0189L30.229 30.042L35.0276 32.8125L31.5769 38.7894L26.7783 36.0189ZM33.169 58.3919C32.9485 58.451 32.7182 58.4206 32.5204 58.3065L26.0503 54.571C25.8526 54.4569 25.7112 54.2726 25.6522 54.052C25.5931 53.8315 25.6234 53.6012 25.7375 53.4034L44.7642 20.4483C44.8783 20.2506 45.0627 20.1091 45.2832 20.05C45.5037 19.9909 45.734 20.0213 45.9318 20.1354L52.4018 23.871C52.5995 23.985 52.741 24.1694 52.8001 24.3899C52.8592 24.6104 52.8288 24.8408 52.7147 25.0385L51.9854 26.3016L47.7824 23.8749C47.2444 23.5642 46.5563 23.7486 46.2456 24.2867C45.9349 24.8247 46.1193 25.5128 46.6574 25.8234L50.8604 28.2501L49.6334 30.3755L47.4672 29.125C46.9292 28.8142 46.2412 28.9987 45.9305 29.5367C45.6198 30.0748 45.8042 30.7628 46.3422 31.0735L48.5084 32.324L47.2813 34.4494L43.0782 32.0227C42.5401 31.712 41.8521 31.8964 41.5415 32.4345C41.2308 32.9725 41.4151 33.6606 41.9532 33.9712L46.1563 36.3979L44.9292 38.5232L42.7631 37.2727C42.2251 36.9621 41.537 37.1464 41.2263 37.6845C40.9156 38.2225 41.1 38.9106 41.6381 39.2212L43.8041 40.4718L42.5983 42.5603L38.3953 40.1337C37.8572 39.823 37.1692 40.0074 36.8585 40.5455C36.5478 41.0835 36.7322 41.7716 37.2703 42.0822L41.4733 44.5089L40.2463 46.6342L38.0802 45.3836C37.5422 45.073 36.8541 45.2574 36.5434 45.7954C36.2328 46.3334 36.4171 47.0215 36.9552 47.3322L39.1213 48.5828L37.8942 50.7081L33.6912 48.2815C33.1532 47.9709 32.4652 48.1553 32.1545 48.6933C31.8438 49.2313 32.0282 49.9194 32.5663 50.2301L36.7692 52.6567L35.5421 54.782L33.3761 53.5314C32.8381 53.2208 32.15 53.4052 31.8393 53.9432C31.5286 54.4812 31.713 55.1693 32.2511 55.48L34.4171 56.7306L33.6879 57.9937C33.5738 58.1914 33.3894 58.3328 33.169 58.3919ZM43.9812 44.6652C43.9823 44.6634 43.9834 44.6615 43.9845 44.6596C43.9856 44.6577 43.9867 44.6558 43.9877 44.6539L46.3144 40.624C46.3147 40.6235 46.315 40.623 46.3153 40.6224C46.3155 40.6219 46.3159 40.6214 46.3162 40.6209L46.8752 39.6526L52.7137 43.0235L49.263 49.0004L43.4244 45.6295L43.9812 44.6652ZM58.7476 50.4918C57.7963 52.1396 55.6816 52.7062 54.0338 51.7548L51.2115 50.1253L54.6623 44.1484L57.4846 45.7779C59.1324 46.7294 59.699 48.8439 58.7476 50.4918Z" fill="#6C4796"/>
</g>
</g>
<defs>
<clipPath id="clip0_3255_8087">
<rect width="64" height="64" fill="white" transform="translate(0.0351562 16.5938) rotate(-15)"/>
</clipPath>
</defs>
</svg>

<svg width="79" height="79" fill="none" xmlns="http://www.w3.org/2000/svg"><g clip-path="url(#a)"><path d="M47.51 70.13c17.07-4.573 27.2-22.12 22.627-39.191C65.562 13.868 48.016 3.737 30.945 8.312 13.874 12.886 3.743 30.432 8.317 47.503c4.575 17.071 22.121 27.202 39.192 22.628Z" fill="#fff"/><path d="m48 37.704.667-1.154v-.002l2.352-4.073v-.001l2.352-4.073 1.292-2.238a3.084 3.084 0 0 0 .31-2.355 3.084 3.084 0 0 0-1.446-1.886l-6.47-3.735a3.084 3.084 0 0 0-2.356-.31 3.084 3.084 0 0 0-1.885 1.446l-6.663 11.541-7.834-4.523A8.402 8.402 0 0 0 24 25.217l-6.927.098a1.125 1.125 0 0 0-.966 1.674l3.378 6.048a8.403 8.403 0 0 0 3.134 3.178l7.833 4.523-6.663 11.54a3.085 3.085 0 0 0-.31 2.356c.214.801.728 1.47 1.446 1.886l6.47 3.735a3.084 3.084 0 0 0 2.356.31 3.084 3.084 0 0 0 1.885-1.446l3.643-6.309.001-.003.002-.002 3.018-5.227 10.609 6.125a5.683 5.683 0 0 0 4.325.567 5.683 5.683 0 0 0 3.462-2.653 5.707 5.707 0 0 0-2.086-7.787L48 37.704ZM21.45 31.94l-2.46-4.402 5.042-.071a6.151 6.151 0 0 1 3.162.823l1.087.627-3.451 5.977-1.087-.627a6.153 6.153 0 0 1-2.293-2.327Zm5.328 4.079 3.451-5.977 4.799 2.77-3.451 5.977-4.799-2.77Zm6.391 22.373a.85.85 0 0 1-.649-.086l-6.47-3.735a.848.848 0 0 1-.398-.519.85.85 0 0 1 .085-.649l19.027-32.955a.85.85 0 0 1 .52-.398.85.85 0 0 1 .648.085l6.47 3.736c.197.114.339.298.398.519a.85.85 0 0 1-.085.648l-.73 1.264-4.203-2.427a1.125 1.125 0 0 0-1.125 1.948l4.203 2.427-1.227 2.125-2.166-1.25a1.125 1.125 0 1 0-1.125 1.948l2.166 1.251-1.227 2.125-4.203-2.426a1.125 1.125 0 1 0-1.125 1.948l4.203 2.427-1.227 2.125-2.166-1.25a1.125 1.125 0 0 0-1.125 1.948l2.166 1.25-1.206 2.09-4.203-2.427a1.125 1.125 0 1 0-1.125 1.948l4.203 2.427-1.227 2.125-2.166-1.25a1.125 1.125 0 0 0-1.125 1.948l2.166 1.25-1.227 2.126-4.203-2.426a1.125 1.125 0 0 0-1.125 1.948l4.203 2.427-1.227 2.125-2.166-1.25a1.125 1.125 0 0 0-1.125 1.948l2.166 1.25-.73 1.264a.85.85 0 0 1-.518.398Zm10.812-13.727a.277.277 0 0 0 .003-.005l.004-.006 2.326-4.03.001-.002.001-.001.56-.968 5.838 3.37L49.263 49l-5.839-3.37.557-.965Zm14.767 5.827a3.455 3.455 0 0 1-4.714 1.263l-2.822-1.63 3.45-5.977 2.823 1.63a3.455 3.455 0 0 1 1.263 4.714Z" fill="#6C4796"/></g><defs><clipPath id="a"><path fill="#fff" transform="rotate(-15 63.039 8.163)" d="M0 0h64v64H0z"/></clipPath></defs></svg>
